!!!Genre:	Plyeskun
!!!Mode:	Freygish
!!!Listening/dance:	dance
!!!:	*B-:
!!!One_Mode:	no
**kern
*I"P1
*clefG2
*k[b-e-a-]
*G:frey
*M2/4
*>A
=1
16ddLL
16dd
16dd
16ddJJ
8ee-L
16ddL
16ccJJ
=2
8bnL
8dd
8b
8ccJ
=3
16ddLL
16dd
16dd
16ddJJ
8ee-L
16ddL
16ccJJ
=4
8bnL
8ddJ
4b
=5!|:
8ffL
8ee-J
8ddL
8ccJ
=6
8bnL
8f
8g
8a-J
=7
(8.bnL
16a-Jk)
(8.bL
16a-Jk)
=8
8gL
8ggJ
8ggL
8ggJ
=:|!
8a-
4g
=9||
*k[b-e-]
*>bM
*G:frey
8ffL
8ee-J
8ddL
8ccJ
=21
8bnL
8fJ
8gL
8a-J
=22
8.bnL
16a-Jk
8.bL
16a-Jk
=23
8gL
8ggJ
8ggL
8ggJ
=24:|!
(8a-
4.g)
==
*-
